X: 2173
T: Auld Rattray
R: march
M: 
K: Dmajor
M:2/4
|:f>e|d2 A2|GF ED|F<A A>B|A2 fe|d2 A2|GF ED|f<e e>f|e2 fe|
d2 A2|GF ED|G>F GA|Bg fe|dA FD|GB AG|F2 D2|D2:|
|:fg|a>g fe|d2 FA|G>F GA|B2 fg|a>g fe|df ad|f2 e2|e2 fg|
a>g fe|d2 FA|G>F GA|Bg fe|dA FD|GB AE|F2 D2|D2:|

